public/svg/tina-icon.svg

<svg
  viewBox="0 0 49 68"
  fill="inherit"
  xmlns="http://www.w3.org/2000/svg"
  role="img"
  aria-labelledby="title desc"
>
  <title>Tina</title>
  <desc>A proud llama</desc>
  <path d="M31.4615 30.1782C34.763 27.4475 36.2259 11.3098 37.6551 5.50906C39.0843 -0.291715 44.995 0.00249541 44.995 0.00249541C44.995 0.00249541 43.4605 2.67299 44.0864 4.66584C44.7123 6.65869 49 8.44005 49 8.44005L48.0752 10.8781C48.0752 10.8781 46.1441 10.631 44.995 12.9297C43.8459 15.2283 45.7336 37.9882 45.7336 37.9882C45.7336 37.9882 38.8271 51.6106 38.8271 57.3621C38.8271 63.1136 41.5495 67.9338 41.5495 67.9338H37.7293C37.7293 67.9338 32.1252 61.2648 30.9759 57.9318C29.8266 54.5988 30.2861 51.2658 30.2861 51.2658C30.2861 51.2658 24.1946 50.921 18.7931 51.2658C13.3915 51.6106 9.78922 56.2539 9.13908 58.8512C8.48894 61.4486 8.21963 67.9338 8.21963 67.9338H5.19906C3.36057 62.2603 1.90043 60.2269 2.69255 57.3621C4.88665 49.4269 4.45567 44.9263 3.94765 42.9217C3.43964 40.9172 0 39.1676 0 39.1676C1.68492 35.7349 3.4048 34.0854 10.8029 33.9133C18.201 33.7413 28.1599 32.9088 31.4615 30.1782Z" />
  <path d="M12.25 57.03C12.25 57.03 13.0305 64.2533 17.1773 67.9342H20.7309C17.1773 63.9085 16.7897 53.415 16.7897 53.415C14.9822 54.0035 12.4799 56.1106 12.25 57.03Z" />
</svg>

<svg viewBox="0 0 49 68" fill="var(--color-primary, #EC4815)" xmlns="http://www.w3.org/2000/svg"><path d="M31.462 30.178c3.301-2.73 4.764-18.868 6.193-24.669 1.43-5.8 7.34-5.507 7.34-5.507s-1.534 2.671-.909 4.664C44.712 6.659 49 8.44 49 8.44l-.925 2.438s-1.93-.247-3.08 2.052c-1.15 2.298.739 25.058.739 25.058s-6.907 13.623-6.907 19.374c0 5.752 2.723 10.572 2.723 10.572h-3.82s-5.605-6.67-6.754-10.002c-1.15-3.333-.69-6.666-.69-6.666s-6.091-.345-11.493 0c-5.401.345-9.004 4.988-9.654 7.585-.65 2.598-.92 9.083-.92 9.083H5.2C3.361 62.26 1.9 60.227 2.693 57.362c2.194-7.935 1.763-12.436 1.255-14.44C3.44 40.917 0 39.168 0 39.168c1.685-3.433 3.405-5.083 10.803-5.255 7.398-.172 17.357-1.004 20.658-3.735z"/><path d="M12.25 57.03s.78 7.223 4.927 10.904h3.554c-3.554-4.026-3.941-14.519-3.941-14.519-1.808.589-4.31 2.696-4.54 3.615z"/></svg>
